X: 2
T:The Punch in the Dark
C:Gerry O'Connor
D:Sean Smyth : Blue Fiddle
M:C
L:1/8
K:Bdor
B2 Bd cBdc| BdcA FEFA| BdcB dcBd| caag afec|
B2 Bd cBdc| BdcA ~F2 FD| DE ~E2 ABcA|1 caag afec:|2 dcBd defg||
|:a2ag aece| ~a2 ae gabg| ga ~a2 aece| dcBd cAce|
eaag aece| ~a2 ae gabg| ga ~a2 aece|1 dcBc defg:|2 dcBd cAdc ||